X: 1
T: The Cotillion
R: barndance
M: 4/4
L: 1/8
K: Gmaj
D2    | "G"G4 "D" d4      | "Em"B2AB "G/D" G2AB  | "C"c2B2 A2G2    | "D"FGEF D3 D    |
        "C"E4"D"F4        | "G"GFGA "Em"G2c2     | "C"B2AG "D"A2GF | "G" G6         :|
|: d2 | "D"dedc "G"B2d2 | "D"dedc "G"B2d2    | "C"e2d2 "D"e2f2 | "G" g4 "D" d2ef |
        "G"g2fe "D"d2 d2  | "C/E"e2dc "Em/B"B2AB | "C"c2B2"Am"A2G2 | "D" F2EF D3D    |
        "C"E4"D"F4        | "G"GFGA "Em"G2c2     | "C"B2AG "D"A2GF | "G"G6          :|

